!!!OTL: HOPCHEN HOP HOP HEI
!!!ARE: Europa, Mitteleuropa, Deutschland
!!!SCT: E1708
!!!YEM: Copyright 1995, estate of Helmut Schaffrath.
**kern
*ICvox
*Ivox
*M4/4
*k[b-]
*F:
=1
{4.a
8a
4.g
8f
=2
1f}
=3
{4.a
8a
4.g
8f
=4
1f}
=5
{4a
4a
4a
4cc
=6
4b-
4a
2g}
=7
{4a
4a
4a
4cc
=8
4b-
4a
2g}
=9
{4.a
8a
4.g
8f
=10
1f}
==
!!!AGN: Scherz - Lied
!!!ONB: ESAC (Essen Associative Code) Database: ERK3
!!!AMT: simple quadruple
!!!AIN: vox
!!!EED: Helmut Schaffrath
!!!EEV: 1.0
*-
